svg/book_open_blank_variant.svg

<svg xmlns="http://www.w3.org/2000/svg" viewBox="0 0 24 24"><path d="M21 5c-1.11-.35-2.33-.5-3.5-.5-1.95 0-4.05.4-5.5 1.5-1.45-1.1-3.55-1.5-5.5-1.5S2.45 4.9 1 6v14.65c0 .25.25.5.5.5.1 0 .15-.05.25-.05C3.1 20.45 5.05 20 6.5 20c1.95 0 4.05.4 5.5 1.5 1.35-.85 3.8-1.5 5.5-1.5 1.65 0 3.35.3 4.75 1.05.1.05.15.05.25.05.25 0 .5-.25.5-.5V6c-.6-.45-1.25-.75-2-1m0 13.5c-1.1-.35-2.3-.5-3.5-.5-1.7 0-4.15.65-5.5 1.5V8c1.35-.85 3.8-1.5 5.5-1.5 1.2 0 2.4.15 3.5.5z"/></svg>

<?xml version="1.0" encoding="UTF-8"?><!DOCTYPE svg PUBLIC "-//W3C//DTD SVG 1.1//EN" "http://www.w3.org/Graphics/SVG/1.1/DTD/svg11.dtd"><svg xmlns="http://www.w3.org/2000/svg" xmlns:xlink="http://www.w3.org/1999/xlink" version="1.1" id="mdi-book-open-blank-variant" width="24" height="24" viewBox="0 0 24 24"><path d="M21,5C19.89,4.65 18.67,4.5 17.5,4.5C15.55,4.5 13.45,4.9 12,6C10.55,4.9 8.45,4.5 6.5,4.5C4.55,4.5 2.45,4.9 1,6V20.65C1,20.9 1.25,21.15 1.5,21.15C1.6,21.15 1.65,21.1 1.75,21.1C3.1,20.45 5.05,20 6.5,20C8.45,20 10.55,20.4 12,21.5C13.35,20.65 15.8,20 17.5,20C19.15,20 20.85,20.3 22.25,21.05C22.35,21.1 22.4,21.1 22.5,21.1C22.75,21.1 23,20.85 23,20.6V6C22.4,5.55 21.75,5.25 21,5M21,18.5C19.9,18.15 18.7,18 17.5,18C15.8,18 13.35,18.65 12,19.5V8C13.35,7.15 15.8,6.5 17.5,6.5C18.7,6.5 19.9,6.65 21,7V18.5Z" /></svg>
